X:1
T: Lord Alexander Gordon's Strathspey
T: 2nd version
C:William Marshall
R:Strathspey
Q: 128
K:A
M:4/4
L:1/16
|:A,2A2 A2cd eA3 c4|e3e fedc d2B2 B2c2|A,2A2 A2cd e3A c2e2|((3f2g2a2) ((3e2f2d2) cA3 A4|
A,2A2 A2cd eA3 c4|e3e fedc d2B2 B2c2|A,2A2 A2cd e3A c2e2|((3f2g2a2) ((3e2f2d2) cA3 A4|
C3E E2FG AE3 A4|F2B2 B2c2 d2c2 B2A2|((3c2d2e2) ((3f2g2a2) f3e d3c|((3B2c2d2) ((3e2f2d2) c2A2 A4|
C3E E2FG AE3 A4|F2B2 B2c2 d2c2 B2A2|((3c2d2e2) ((3f2g2a2) ((3f2e2d2) ((3c2B2A2) |((3B2c2d2) ((3e2f2d2) c2A2 A4:|
